P3
16 16
255
0 0 0 0 0 0 0 0 0 0 0 0 0 0 0 0 0 0 0 0 0 0 0 0 0 0 0 0 0 0 0 0 0 0 0 0 0 0 0 0 0 0 0 0 0 0 0 0
0 0 0 0 0 0 0 0 0 0 0 0 0 0 0 0 0 0 0 0 0 64 64 64 64 64 64 64 64 64 64 64 64 0 0 0 0 0 0 0 0 0 0 0 0 0 0 0
0 0 0 0 0 0 0 0 0 0 0 0 0 0 0 64 64 64 64 64 64 64 64 64 64 64 64 64 64 64 64 64 64 64 64 64 0 0 0 0 0 0 0 0 0 0 0 0
0 0 0 0 0 0 64 64 64 64 64 64 64 64 64 64 64 64 64 64 64 64 64 64 64 64 64 64 64 64 64 64 64 64 64 64 64 64 64 64 64 64 0 0 0 0 0 0
0 0 0 0 0 0 64 64 64 64 64 64 64 64 64 64 64 64 160 160 160 160 160 160 64 64 64 64 64 64 64 64 64 64 64 64 64 64 64 64 64 64 0 0 0 0 0
0 0 0 0 0 0 0 64 64 64 64 64 64 120 0 0 64 64 64 64 64 64 64 255 40 40 64 64 64 64 64 64 64 64 64 64 64 64 64 64 64 64 0 0 0 0 0
0 0 0 0 0 0 64 64 64 64 64 64 64 120 0 0 120 0 0 64 64 64 64 64 64 64 64 64 64 64 120 0 0 64 64 64 64 64 64 64 64 64 0 0 0 0 0 0
0 0 0 0 0 0 120 0 0 0 0 0 64 64 64 64 64 64 64 64 64 120 0 0 64 64 64 64 64 64 120 0 0 120 0 0 0 0 0 0 0 0 0 0 0 0 0 0
0 0 0 0 0 0 120 0 0 0 0 0 0 0 0 64 64 64 0 0 0 0 0 0 64 64 64 64 64 64 0 0 0 0 0 0 0 0 0 0 0 0 0 0 0 0 0 0
0 0 0 0 0 0 0 0 0 120 0 0 64 64 64 64 64 64 0 0 0 64 64 64 64 64 64 0 0 0 64 64 64 0 0 0 120 0 0 64 64 64 0 0 0 0 0 0
0 0 0 0 0 0 0 0 0 64 64 64 0 0 0 64 64 64 64 64 64 120 0 0 64 64 64 64 64 64 0 0 0 0 0 0 120 0 0 0 0 0 0 0 0 0 0 0
0 0 0 0 0 0 0 0 0 0 0 0 0 0 0 120 0 0 0 0 0 0 0 0 0 0 0 0 0 0 120 0 0 0 0 0 0 0 0 0 0 0 0 0 0 0 0 0
0 0 0 0 0 0 64 64 64 64 64 64 0 0 0 64 64 64 0 0 0 64 64 64 64 64 64 64 64 64 64 64 64 64 64 64 64 64 64 0 0 0 0 0 0 0 0 0
0 0 0 0 0 0 64 64 64 64 64 64 64 64 64 64 64 64 0 0 0 64 64 64 64 64 64 64 64 64 64 64 64 64 64 64 64 64 64 64 64 64 0 0 0 0 0
0 0 0 0 0 0 0 0 0 0 0 0 0 0 0 0 0 0 0 0 0 120 0 0 120 0 0 0 0 0 0 0 0 0 0 0 0 0 0 0 0 0 0 0 0 0 0 0
0 0 0 0 0 0 0 0 0 0 0 0 0 0 0 0 0 0 0 0 0 0 0 0 0 0 0 0 0 0 0 0 0 0 0 0 0 0 0 0 0 0 0 0 0 0 0 0